X:95
T:London. JMP.095
M:2/2
L:1/2
Q:60
S:John Miller MS. Perth, 1799.(for the fife)
R:.sacred
O:Scotland
A:Perth
H:179
Z:vmp.C. Graebe
K:A minor
A2 | cc | BA | FG | A || c2 | Bc | BA | B2 || !
G2 | AB | â€œPauseâ€cc | BA | B2 || E2 FA | A^G | A2 |]

